X:233
T:Not for Joe%
T:Brimfield
R:polka 24
M:4/4
L:1/4
Q:140
Z:Brian Martin <brian_martin12345@yahoo.com> Winterbourn Downs Morris  (rcvd Jan 2003)
K:G
DG/G/DG/G/ | FEFE | DG/G/DG/G/ | FGA2 | DG/G/DG/G/ | FEFE | D2B>A | GFGA |]
B>AGB | c2A2 | B>AGB | AFD2 | B>AGB | c2Ac | BGAF | GG/G/G2 |]
B>AGB | c2A2 | B>AGB | AFD2 | B>AGB | c2Ac | BGAF | GG/G/G2 |]

